!!!!SEGMENT: pl-cz--iii-38--001-001_bogoimski-tadeusz--ave-regina-ave-regina.krn
!!!cenid: 18xx:682
!!!COM: Bogoimski, Tadeusz
!!!COM-rism: pe30024244
!!!CDT: ~1800-~1899
!!!CNT:
!!!OTL: Ave Regina - Ave Regina
!!!PDT: 1840
!!!AGN: Sacred
!!!SMS-siglum: PL-CZ
!!!SMS-shelfmark: III-38
!!!NIFC-rismID: 300237591
!!!URL-scan: http://repozytorium.nifc.pl/skany/pl-cz-nut--iii-38
!!!ONB-nifc: UWAGA: części Ave Regina: Ave Regina, Gaude virgo gloriosa
!!!SMS-variant:
!!!SMS-altvar:
**kern	**kern	**dynam	**kern	**dynam	**kern	**dynam	**kern	**dynam	**kern	**text	**kern	**dynam	**kern	**dynam	**kern	**dynam	**kern	**dynam	**kern
*part11	*part10	*part10	*part9	*part9	*part8	*part8	*part7	*part7	*part6	*part6	*part5	*part5	*part4	*part4	*part3	*part3	*part2	*part2	*part1
*	*group3	*	*group3	*	*group3	*	*group3	*	*	*	*group2	*	*group2	*	*group1	*	*group1	*	*group1
*staff11	*staff10	*	*staff9	*	*staff8	*	*staff7	*	*staff6	*staff6	*staff5	*	*staff4	*	*staff3	*	*staff2	*	*staff1
*I"Organo	*I"Baſso.	*	*I"Viola	*	*I"Violino Secundo	*	*I"Violino 1mo	*	*I"Tenore et Baſſo Solo!	*	*I"Clarino in A.	*	*I"Duo Corni in A.	*	*I"Clarinetto 2do in A.	*	*I"Clarinetto Imo in A.	*	*I"Flauto
*I'org	*I'cb	*	*I'vla	*	*I'vl II	*	*I'vl I	*	*I'B	*	*I'clno	*	*I'cor	*	*I'cl II	*	*I'cl I	*	*I'fl
*clefF4	*clefF4	*	*clefC3	*	*clefG2	*	*clefG2	*	*clefF4	*	*clefG2	*	*clefG2	*	*clefG2	*	*clefG2	*	*clefG2
*	*	*	*	*	*	*	*	*	*	*	*ITrd2c3	*	*ITrd2c3	*	*ITrd2c3	*	*ITrd2c3	*	*
*k[f#c#g#]	*k[f#c#g#]	*	*k[c#f#g#]	*	*k[f#g#c#]	*	*k[f#c#g#]	*	*k[f#c#g#]	*	*k[f#c#g#]	*	*k[f#c#g#]	*	*k[f#c#g#]	*	*k[f#c#g#]	*	*k[f#c#g#]
*M4/4	*M4/4	*	*M4/4	*	*M4/4	*	*M4/4	*	*M4/4	*	*M4/4	*	*M4/4	*	*M4/4	*	*M4/4	*	*M4/4
*met(c)	*met(c)	*	*met(c)	*	*met(c)	*	*met(c)	*	*met(c)	*	*met(c)	*	*met(c)	*	*met(c)	*	*met(c)	*	*met(c)
*	*	*	*	*	*^	*	*^	*	*	*	*	*	*	*	*	*	*	*	*
*	*	*	*	*	*	*cue	*	*	*cue	*	*	*	*	*	*	*	*	*	*	*	*
!	!	!	!	!	!LO:TX:a:i:t=Flauto solo	!	!	!LO:TX:a:i:t=Flauto Solo	!	!	!LO:TX:a:i:t=Andante	!	!	!	!	!	!	!	!LO:TX:a:i:t=Solo	!	!
!	!LO:TX:a:i:t=Andanto.	!	!LO:TX:a:i:t=Andante soste	!	!LO:TX:a:i:t=Andante soste	!	!	!LO:TX:a:i:t=Andante sostenuto	!	!	!LO:TX:a:B:t=Basso	!	!LO:TX:a:i:t=Andante	!	!	!	!LO:TX:a:i:t=Andante	!	!LO:TX:a:i:t=Andante	!	!LO:TX:a:i:t=Andante
!LO:TX:a:t=P:problem:nad partią zapisana linia pomocnicza z innymi partiami	!	!	!	!	!	!	!	!	!LO:TX:a:Bi:t=Duetto.	!	!	!	!	!	!	!	!	!	!	!	!
4r	4r	.	4r	.	4rd	8cc#/L	.	4rd	8.cc#/L	.	4r	.	4r	.	4r	.	4r	.	8.c#/L	p	(8.cc#\L
.	.	.	.	.	.	8dd/J	.	.	.	.	.	.	.	.	.	.	.	.	.	.	.
!	!	!	!	!	!	!	!	!	!	!	!	!	!	!	!	!	!	!	!LO:TX:b:i:t=dolce	!	!
.	.	.	.	.	.	.	.	.	16dd/Jk	.	.	.	.	.	.	.	.	.	16d/Jk	.	16dd\Jk)
=1	=1	=1	=1	=1	=1	=1	=1	=1	=1	=1	=1	=1	=1	=1	=1	=1	=1	=1	=1	=1	=1
*	*	*	*	*	*	*	*	*	*	*	*	*	*	*	*^	*	*	*	*	*	*
*	*	*	*	*	*	*	*	*	*	*	*	*	*	*	*	*all\right	*	*	*	*	*	*
!	!	!LO:DY:b:rj	!	!	!	!	!	!	!	!LO:DY:b	!LO:TX:a:t=7.	!	!	!LO:DY:t=p.	!	!	!	!	!	!	!	!
4AA/	4AA/	p	4r	.	4rd	4ee/	.	4rd	4ee/	p	00r	.	4a\	p	4a/	4A\	p	2r	.	4e/	.	4ee^\
!	!	!	!	!	!	!	!	!	!	!.	!	!	!	!	!	!	!	!	!	!	!	!
4r	4r	.	8.eL 8.c#\	.	8.A/L	8.ff#/L	.	8.eL 8.c#/	8.ff#/L	.	.	.	4r	.	4r	4ryy	.	.	.	8.f#/L	.	8.ff#\L
.	.	.	16eJk 16c#\	.	16A/Jk	16gg#/Jk	.	16eJk 16c#/	16gg#/Jk	.	.	.	.	.	.	.	.	.	.	16g#/Jk	.	16gg#\Jk
4A\	4A\	.	4e 4c#\	.	4A/	4aa/	.	4e 4c#/	4aa/	.	.	.	4a\	.	4a/	4c#\	.	4A/	.	4a\	.	4aa\
4r	4r	.	4r	.	4rf	4ccc#/	.	4rf	4ccc#/	.	.	.	4r	.	4r	4ryy	.	4c#/	.	4cc#\	.	4ccc#\
=2	=2	=2	=2	=2	=2	=2	=2	=2	=2	=2	=2	=2	=2	=2	=2	=2	=2	=2	=2	=2	=2	=2
*	*	*	*	*	*	*	*	*	*	*	*	*	*	*	*	*	*	*	*	*2\right	*	*2\right
!	!	!	!	!	!	!	!	!	!	!	!	!	!LO:TX:b:t=1	!	!LO:TX:b:t=1.	!	!	!	!	!LO:TX:a:t=P:problem:mixed beam	!	!
4D\	4D\	.	4r	.	4rf	2ccc#/	.	4rf	2ccc#/	.	.	.	1r	.	1r	1ryy	.	2c#/	.	2cc#^<\	.	2ccc#\
4r	4r	.	8.d\L	.	8.f#L 8.d/	.	.	8.bL 8.f#\	.	.	.	.	.	.	.	.	.	.	.	.	.	.
.	.	.	16d\Jk	.	16f#Jk 16d/	.	.	16bJk 16f#\	.	.	.	.	.	.	.	.	.	.	.	.	.	.
4D\	4D\	.	4d\	.	4f# 4d/	8ff#/	.	4b 4f#\	8ff#/	.	.	.	.	.	.	.	.	2r	.	8f#/	.	8ff#\
.	.	.	.	.	.	8rgg	.	.	8rgg	.	.	.	.	.	.	.	.	.	.	8r	.	8r
4r	4r	.	4r	.	4rf	8.ddd/L	.	4rf	8.ddd/L	.	.	.	.	.	.	.	.	.	.	(8.dd^<\L	.	(8.ddd\L
.	.	.	.	.	.	16ccc#/Jk	.	.	16ccc#/Jk	.	.	.	.	.	.	.	.	.	.	16cc#\Jk)	.	16ccc#\Jk)
=3	=3	=3	=3	=3	=3	=3	=3	=3	=3	=3	=3	=3	=3	=3	=3	=3	=3	=3	=3	=3	=3	=3
!	!	!	!	!	!	!	!	!	!	!	!	!	!	!	!	!	!	!LO:TX:a:t=2.	!	!	!	!
4E\	4E\	.	4r	.	4rf	8.ccc#/L	.	4rf	8.ccc#/L	.	.	.	4r	.	4r	4ryy	.	0r	.	(8.cc#^<\L	.	8.ccc#\L
.	.	.	.	.	.	16bb/Jk	.	.	16bb/Jk	.	.	.	.	.	.	.	.	.	.	16b\Jk)	.	16bb\Jk
4r	4r	.	4d 4B\	.	4e 4d/	8.ddd/L	.	4b 4e\	8.ddd/L	.	.	.	16e/LL	.	4b/	4e\	.	.	.	(8.dd^<\L	.	8.ddd\L
.	.	.	.	.	.	.	.	.	.	.	.	.	16e/JJ	.	.	.	.	.	.	.	.	.
.	.	.	.	.	.	.	.	.	.	.	.	.	8e/L	.	.	.	.	.	.	.	.	.
.	.	.	.	.	.	16ccc#/Jk	.	.	16ccc#/Jk	.	.	.	.	.	.	.	.	.	.	16cc#\Jk)	.	16ccc#\Jk
4E\	4E\	.	4r	.	4rf	8.ccc#/L	.	4rf	8.ccc#/L	.	.	.	8e/J	.	4b/	4e\	.	.	.	(8.cc#^<\L	.	8.ccc#\L
.	.	.	.	.	.	.	.	.	.	.	.	.	4e/	.	.	.	.	.	.	.	.	.
.	.	.	.	.	.	16bb/Jk	.	.	16bb/Jk	.	.	.	.	.	.	.	.	.	.	16b\Jk)	.	16bb\Jk
4r	4r	.	4d 4B\	.	4e 4d/	8.ff#/L	.	4b 4e\	8.ff#/L	.	.	.	.	.	4r	4ryy	.	.	.	(8.f#^</L	.	8.ff#\L
.	.	.	.	.	.	.	.	.	.	.	.	.	8r	.	.	.	.	.	.	.	.	.
.	.	.	.	.	.	16gg#/Jk	.	.	16gg#/Jk	.	.	.	.	.	.	.	.	.	.	16g#/Jk)	.	16gg#\Jk
!	!	!	!	!	!	!	!	!LO:TX:a:t=P:problem:wszystkie custos użyte jako łamanie pięciolinii	!	!	!	!	!	!	!	!	!	!	!	!	!	!
!	!	!	!	!	!	!	!	!LO:SIC:v:custos	!	!	!	!	!	!	!	!	!	!	!	!	!	!
!LO:LB:g=original	!	!	!	!	!	!	!	!LO:LB:g=original	!LO:LB:g=original	!	!	!	!	!	!	!	!	!	!	!	!	!LO:LB:g=original
=4	=4	=4	=4	=4	=4	=4	=4	=4	=4	=4	=4	=4	=4	=4	=4	=4	=4	=4	=4	=4	=4	=4
4r	4r	.	4r	.	4rf	8.bb/L	.	4rf	8.bb/L	.	.	.	8r	.	4r	4ryy	.	.	.	(8.b^<\L	.	8.bb\L
.	.	.	.	.	.	.	.	.	.	.	.	.	16A/LL	.	.	.	.	.	.	.	.	.
.	.	.	.	.	.	16aa/Jk	.	.	16aa/Jk	.	.	.	16A/JJ	.	.	.	.	.	.	16a\Jk)	.	16aa\Jk
4A\	4AA/	.	8.c#\L	.	8.eL 8.c#/	8.ccc#/L	.	8.aL 8.c#\	8.ccc#/L	.	.	.	8c#/L	.	4cc#/	4a\	.	.	.	(8.cc#\L	.	8.ccc#\L
.	.	.	.	.	.	.	.	.	.	.	.	.	8A/J	.	.	.	.	.	.	.	.	.
.	.	.	16c#\Jk	.	16eJk 16c#/	16aa/Jk	.	16aJk 16c#\	16aa/Jk	.	.	.	.	.	.	.	.	.	.	16b\Jk)	.	16aa\Jk
4AA/	4A\	.	4c#\	.	4A/	8ee/	.	4e 4c#\	8ee/	.	.	.	4e/	.	4cc#/	4a\	.	.	.	8e/	.	8ee\
.	.	.	.	.	.	8rdd	.	.	8ree	.	.	.	.	.	.	.	.	.	.	8r	.	8r
4r	4r	.	4r	.	4rf	8.cc#/L	.	4rd	8.cc#/L	.	.	.	4r	.	4r	4ryy	.	.	.	8.c#/L	.	8.cc#\L
.	.	.	.	.	.	16dd/Jk	.	.	16dd/Jk	.	.	.	.	.	.	.	.	.	.	16d/Jk	.	16dd\Jk
!	!	!	!LO:LB:g=original	!	!	!	!	!	!	!	!	!	!	!	!	!	!	!	!	!LO:LB:g=original	!	!
=5	=5	=5	=5	=5	=5	=5	=5	=5	=5	=5	=5	=5	=5	=5	=5	=5	=5	=5	=5	=5	=5	=5
4AA/	4AA/	.	4r	.	4rf	4ee/	.	4rd	4ee/	.	0r	.	4a\	.	4a/	4A\	.	2r	.	4e/	.	4ee\
4r	4r	.	8.A/L	.	8.A/L	8.ff#/L	.	8.eL 8.c#/	8.ff#/L	.	.	.	4r	.	4r	4ryy	.	.	.	8.f#/L	.	8.ff#\L
.	.	.	16A/Jk	.	16A/Jk	16gg#/Jk	.	16eJk 16c#/	16gg#/Jk	.	.	.	.	.	.	.	.	.	.	16g#/Jk	.	16gg#\Jk
4A\	4A\	.	4A/	.	4A/	4aa/	.	4e 4c#/	4aa/	.	.	.	4a\	.	4a/	4A\	.	4A/	.	4a\	.	4aa\
4r	4r	.	4r	.	4rf	8.bb/L	.	4rf	8.bb/L	.	.	.	4r	.	4r	4ryy	.	8B/L	.	8.b\L	.	8.bb\L
.	.	.	.	.	.	.	.	.	.	.	.	.	.	.	.	.	.	8c#/J	.	.	.	.
.	.	.	.	.	.	16ccc#/Jk	.	.	16ccc#/Jk	.	.	.	.	.	.	.	.	.	.	16cc#\Jk	.	16ccc#\Jk
!	!LO:LB:g=original	!	!	!	!LO:LB:g=original	!LO:LB:g=original	!	!	!	!	!	!	!	!	!LO:LB:g=original	!LO:LB:g=original	!	!	!	!	!	!
=6	=6	=6	=6	=6	=6	=6	=6	=6	=6	=6	=6	=6	=6	=6	=6	=6	=6	=6	=6	=6	=6	=6
!	!	!	!	!	!	!	!	!	!	!	!	!	!LO:TX:a:t=1	!	!LO:TX:b:t=1.	!	!	!	!	!	!	!
4D\	4D\	.	4r	.	4rf	2ccc#/	.	4rf	2ccc#/	.	.	.	1r	.	1r	1ryy	.	2c#^>/	.	2cc#\	.	2ccc#\
4r	4r	.	8.d\L	.	8.bL 8.f#\	.	.	8.bL 8.f#\	.	.	.	.	.	.	.	.	.	.	.	.	.	.
.	.	.	16d\Jk	.	16bJk 16f#\	.	.	16bJk 16f#\	.	.	.	.	.	.	.	.	.	.	.	.	.	.
4D\	4D\	.	4d\	.	4b 4f#\	8ff#/	.	4b 4f#\	8ff#/	.	.	.	.	.	.	.	.	4r	.	8f#/	.	8ff#\
.	.	.	.	.	.	8rgg	.	.	8rgg	.	.	.	.	.	.	.	.	.	.	8r	.	8r
4r	4r	.	4r	.	4rf	8.ddd/L	.	4rf	8.ddd/L	.	.	.	.	.	.	.	.	8.f#/L	.	(8.dd\L	.	8.ddd\L
.	.	.	.	.	.	16ccc#/Jk	.	.	16ccc#/Jk	.	.	.	.	.	.	.	.	16e/Jk	.	16cc#\Jk)	.	16ccc#\Jk
!	!	!	!	!	!	!	!	!	!	!	!	!	!LO:LB:g=original	!	!	!	!	!LO:LB:g=original	!	!	!	!
=7	=7	=7	=7	=7	=7	=7	=7	=7	=7	=7	=7	=7	=7	=7	=7	=7	=7	=7	=7	=7	=7	=7
!	!	!	!	!	!	!	!	!	!	!LO:HP:b:t=cresc	!	!	!	!	!	!	!	!	!	!	!	!
4E\	4E\	.	8.c#/L	.	8.e/L	8.ccc#/L	.	8.cc#\L	8.ccc#/L	<	1r	.	8r	.	4r	4ryy	.	8.cc#\L	.	(8.ee\L	.	8.ccc#\L
!	!	!	!	!LO:HP:b:t=cresc	!	!	!	!	!	!	!	!	!	!	!	!	!	!	!	!	!	!
.	.	.	.	<	.	.	.	.	.	.	.	.	16e/LL	.	.	.	.	.	.	.	.	.
.	.	.	16B/Jk	.	16d/Jk	16bb/Jk	.	16b\Jk	16bb/Jk	.	.	.	16e/JJ	.	.	.	.	16b\Jk	.	16cc#\Jk)	.	16bb\Jk
!	!	!	!	!	!	!	!LO:HP:b:t=cresc	!	!	!	!	!	!	!	!	!	!	!	!	!	!	!
4r	4r	.	(8.e\L	.	8.g#/L	8.eee/L	<	8.ee\L	8.eee/L	.	.	.	8e/L	.	4b/	4e\	.	8.ee\L	.	(8.gg#\L	.	8.eee\L
.	.	.	.	.	.	.	.	.	.	.	.	.	8e/J	.	.	.	.	.	.	.	.	.
.	.	.	16d\Jk)	.	16f#/Jk	16ddd/Jk	.	16dd\Jk	16ddd/Jk	.	.	.	.	.	.	.	.	16dd\Jk	.	16ff#\Jk)	.	16ddd\Jk
4E\	4E\	.	(8.c#/L	.	8.e/L	8.ccc#/L	.	8.cc#\L	8.ccc#/L	.	.	.	4e/	.	4b/	4e\	.	8.cc#\L	.	(8.ee\L	.	8.ccc#\L
.	.	.	16B/Jk)	.	16d/Jk	16bb/Jk	.	16b\Jk	16aa/Jk	.	.	.	.	.	.	.	.	16b\Jk	.	16dd\Jk)	.	16bb\Jk
4r	4r	.	(8.d\L	.	8.d/L	8.ff#/L	.	8.f#\L	8.ff#/L	.	.	.	4r	.	4r	4ryy	.	8.b\L	.	(8.dd\L	.	8.ff#\L
.	.	.	16B\Jk)	.	16c#/Jk	16gg#/Jk	.	16g#\Jk	16gg#/Jk	.	.	.	.	.	.	.	.	16b\Jk	.	16b\Jk)	.	16gg#\Jk
!	!	!	!	!	!	!	!	!	!	!	!	!	!	!	!	!	!	!	!	!	!	!LO:LB:g=original
=8	=8	=8	=8	=8	=8	=8	=8	=8	=8	=8	=8	=8	=8	=8	=8	=8	=8	=8	=8	=8	=8	=8
!	!	!	!	!	!	!	!	!	!	!LO:DY:b	!	!	!	!	!	!	!	!	!	!	!	!
8AA/L	8AA\L	.	4e 4c#\	.	4e 4c#/	4aa/	.	4a\	4aa/	f	2r	.	8r	.	4a/	4c#\	.	4a\	.	4cc#\	.	4aa\
8A\	8A\	.	.	.	.	.	.	.	.	.	.	.	8A/L	.	.	.	.	.	.	.	.	.
8E\	8E\	.	8.eL 8.c#\	.	8.eL 8.c#/	4ccc#/	.	8.cc#L 8.e\	4ccc#/	.	.	.	8c#/	.	4cc#/	4e\	.	4cc#\	.	4ee\	.	4ccc#\
8C#\J	8C#\J	.	.	.	.	.	.	.	.	.	.	.	8e/J	.	.	.	.	.	.	.	.	.
.	.	.	16eJk 16c#\	.	16eJk 16c#/	.	.	16cc#Jk 16e\	.	.	.	.	.	.	.	.	.	.	.	.	.	.
4AA/	4AA/	.	4A/	.	4e 4c#/	4aa/	.	4a 4c#/	4aa/	.	4r	.	4A/	.	4a/	4c#\	.	4a\	.	4cc#\	.	4aa\
!	!	!	!	!	!	!	!	!	!	!	!LO:TX:a:t=Solo	!	!	!	!	!	!	!	!	!	!	!
4r	4r	.	4r	.	4rf	4rgg	.	4r	4rgg	.	8.C#/	A-	4r	.	4r	4ryy	.	4r	.	4r	.	4r
.	.	.	.	.	.	.	.	.	.	.	16D/	-ve	.	.	.	.	.	.	.	.	.	.
*	*	*	*	*	*	*Xcue	*	*	*Xcue	*	*	*	*	*	*	*	*	*	*	*	*	*
*	*	*	*	*	*v	*v	*	*	*	*	*	*	*	*	*	*	*	*	*	*	*	*
*	*	*	*	*	*	*	*v	*v	*	*	*	*	*	*	*	*	*	*	*	*	*
!LO:LB:g=original	!	!	!LO:LB:g=original	!	!	!	!LO:LB:g=original	!	!	!	!	!	!	!	!	!	!	!	!	!
=9	=9	=9	=9	=9	=9	=9	=9	=9	=9	=9	=9	=9	=9	=9	=9	=9	=9	=9	=9	=9
!LO:TX:a:i:t=Tast&colon;	!	!LO:DY:b:rj	!	!	!	!	!	!LO:DY:b	!	!	!LO:TX:a:t=7	!	!LO:TX:a:t=6	!	!	!LO:TX:a:t=1	!	!LO:TX:a:t=1.	!	!LO:TX:a:t=7
4AA/	4AA/	pp	4r	.	4r	.	4r	p	4E\	a-	1r	.	1r	1ryy	.	1r	.	1r	.	00r
4r	4r	.	8.A/L	.	8.A/L	.	8.eL 8.c#/	.	8.F#\L	.	.	.	.	.	.	.	.	.	.	.
.	.	.	16A/Jk	.	16A/Jk	.	16eJk 16c#/	.	16G#\Jk	.	.	.	.	.	.	.	.	.	.	.
4A\	4A\	.	8A/	.	8A/	.	8e 8c#/	.	4A\	-ve	.	.	.	.	.	.	.	.	.	.
.	.	.	8r	.	8r	.	8r	.	.	.	.	.	.	.	.	.	.	.	.	.
4r	4r	.	8A/	.	8A/	.	8e 8c#/	.	4c#\	Re-	.	.	.	.	.	.	.	.	.	.
.	.	.	8r	.	8r	.	8r	.	.	.	.	.	.	.	.	.	.	.	.	.
!	!	!	!	!	!	!	!	!	!LO:LB:g=original	!	!	!	!	!	!	!	!	!	!	!
=10	=10	=10	=10	=10	=10	=10	=10	=10	=10	=10	=10	=10	=10	=10	=10	=10	=10	=10	=10	=10
*	*	*	*	*	*	*	*	*	*2\right	*	*	*	*	*	*	*	*	*	*	*
4D\	4D\	.	4r	.	4r	.	4r	.	2c#\	-gi-	1r	.	1r	1ryy	.	4r	.	4r	.	.
4r	4r	.	8.d\L	.	8.f#L 8.d/	.	8.bL 8.d/	.	.	.	.	.	.	.	.	4B/	.	4f#/	.	.
.	.	.	16d\Jk	.	16f#Jk 16d/	.	16bJk 16d/	.	.	.	.	.	.	.	.	.	.	.	.	.
4D\	4D\	.	4d\	.	4f# 4d/	.	4b 4d/	.	8F#\	-na	.	.	.	.	.	4B/	.	4f#/	.	.
.	.	.	.	.	.	.	.	.	8r	.	.	.	.	.	.	.	.	.	.	.
4r	4r	.	4r	.	4r	.	4r	.	8.d\	a-	.	.	.	.	.	4r	.	4r	.	.
.	.	.	.	.	.	.	.	.	16c#\	-ve	.	.	.	.	.	.	.	.	.	.
!	!	!	!	!	!LO:LB:g=original	!	!	!	!	!	!	!	!	!	!	!	!	!LO:LB:g=original	!	!
=11	=11	=11	=11	=11	=11	=11	=11	=11	=11	=11	=11	=11	=11	=11	=11	=11	=11	=11	=11	=11
!	!	!	!	!	!	!	!	!	!	!	!	!	!	!	!	!LO:TX:a:t=1.	!	!LO:TX:a:t=1.	!	!
4E\	4E\	.	4r	.	4r	.	4r	.	8.c#\L	Re-	1r	.	1r	1ryy	.	1r	.	1r	.	.
.	.	.	.	.	.	.	.	.	16B\Jk	.	.	.	.	.	.	.	.	.	.	.
4r	4r	.	4d 4B\	.	4e 4d/	.	4b 4e/	.	8.d\L	-gi-	.	.	.	.	.	.	.	.	.	.
.	.	.	.	.	.	.	.	.	16c#\Jk	.	.	.	.	.	.	.	.	.	.	.
4E\	4E\	.	4r	.	4r	.	4r	.	8.c#\L	-na	.	.	.	.	.	.	.	.	.	.
.	.	.	.	.	.	.	.	.	16B\Jk	.	.	.	.	.	.	.	.	.	.	.
4r	4r	.	4d 4B\	.	4e 4d/	.	4b 4e/	.	8.F#\L	ce-	.	.	.	.	.	.	.	.	.	.
.	.	.	.	.	.	.	.	.	16G#\Jk	.	.	.	.	.	.	.	.	.	.	.
=12	=12	=12	=12	=12	=12	=12	=12	=12	=12	=12	=12	=12	=12	=12	=12	=12	=12	=12	=12	=12
4r	4r	.	4r	.	4r	.	4r	.	8.B\L	-lo-	1r	.	1r	1ryy	.	4r	.	4r	.	.
.	.	.	.	.	.	.	.	.	16A\Jk	.	.	.	.	.	.	.	.	.	.	.
4AA/	4AA/	.	4e 4c#\	.	4e 4c#/	.	4a 4c#/	.	8.c#\L	.	.	.	.	.	.	4a\	.	4cc#\	.	.
.	.	.	.	.	.	.	.	.	16A\Jk	.	.	.	.	.	.	.	.	.	.	.
4A\	4A\	.	4A/	.	4A/	.	4e 4c#/	.	8E\	-rum	.	.	.	.	.	4a\	.	4cc#\	.	.
.	.	.	.	.	.	.	.	.	8r	.	.	.	.	.	.	.	.	.	.	.
4r	4r	.	4r	.	4r	.	4r	.	8.C#/	a-	.	.	.	.	.	4r	.	4r	.	.
.	.	.	.	.	.	.	.	.	16D/	-ve	.	.	.	.	.	.	.	.	.	.
!	!LO:LB:g=original	!	!	!	!	!	!	!	!LO:LB:g=original	!	!	!	!	!	!	!	!	!	!	!
=13	=13	=13	=13	=13	=13	=13	=13	=13	=13	=13	=13	=13	=13	=13	=13	=13	=13	=13	=13	=13
!	!	!	!	!	!	!	!	!	!	!	!	!	!	!	!	!LO:TX:a:t=1.	!	!LO:TX:a:t=1.	!	!
4AA/	4AA/	.	4r	.	4r	.	4r	.	4E\	Do-	1r	.	1r	1ryy	.	1r	.	1r	.	0r
4r	4r	.	8.A/L	.	8.A/L	.	8.eL 8.c#/	.	8.F#\	-mi-	.	.	.	.	.	.	.	.	.	.
.	.	.	16A/Jk	.	16A/Jk	.	16eJk 16c#/	.	16G#\	-na	.	.	.	.	.	.	.	.	.	.
4A\	4A\	.	8A/	.	8A/	.	8e 8c#/	.	4A\	An-	.	.	.	.	.	.	.	.	.	.
.	.	.	8r	.	8r	.	8r	.	.	.	.	.	.	.	.	.	.	.	.	.
.	.	.	.	.	.	.	.	.	32qqB/LLL	.	.	.	.	.	.	.	.	.	.	.
.	.	.	.	.	.	.	.	.	32qqA/	.	.	.	.	.	.	.	.	.	.	.
.	.	.	.	.	.	.	.	.	32qqG#/	.	.	.	.	.	.	.	.	.	.	.
.	.	.	.	.	.	.	.	.	32qqA/JJJ	.	.	.	.	.	.	.	.	.	.	.
4r	4r	.	8A/	.	8A/	.	8e 8c#/	.	8B\L	-ge-	.	.	.	.	.	.	.	.	.	.
.	.	.	8r	.	8r	.	8r	.	8c#\J	.	.	.	.	.	.	.	.	.	.	.
!	!	!	!LO:LB:g=original	!	!	!	!	!	!	!	!	!	!	!	!	!LO:LB:g=original	!	!	!	!
=14	=14	=14	=14	=14	=14	=14	=14	=14	=14	=14	=14	=14	=14	=14	=14	=14	=14	=14	=14	=14
!	!	!	!LO:TX:a:t=P:problem:od tego miejsca powyżej partii pięciolinia z pomocniczo zapisaną partią Basu	!	!	!	!	!	!	!	!	!	!	!	!	!	!	!	!	!
4D\	4D\	.	4r	.	4r	.	4r	.	2c#\	-lo-	1r	.	1r	1ryy	.	4r	.	4r	.	.
4r	4r	.	8.d\L	.	8.f#L 8.d/	.	8.bL 8.d/	.	.	.	.	.	.	.	.	4d/	.	4f#/	.	.
.	.	.	16d\Jk	.	16f#Jk 16d/	.	16bJk 16d/	.	.	.	.	.	.	.	.	.	.	.	.	.
4D\	4D\	.	8d\	.	4f# 4d/	.	4b 4d/	.	8F#\	-rum	.	.	.	.	.	4d/	.	4f#/	.	.
.	.	.	8r	.	.	.	.	.	8r	.	.	.	.	.	.	.	.	.	.	.
4r	4r	.	4r	.	4r	.	4r	.	8.d\	A-	.	.	.	.	.	4r	.	4r	.	.
.	.	.	.	.	.	.	.	.	16c#\	-ve	.	.	.	.	.	.	.	.	.	.
!	!	!	!	!	!	!	!LO:LB:g=original	!	!	!	!	!	!	!	!	!	!	!	!	!
=15	=15	=15	=15	=15	=15	=15	=15	=15	=15	=15	=15	=15	=15	=15	=15	=15	=15	=15	=15	=15
!	!	!	!	!	!	!	!	!	!	!	!	!	!	!	!	!LO:TX:a:t=1	!	!LO:TX:a:t=1.	!	!
4E\	4E\	.	4r	.	4r	.	4r	.	8.c#\L	Do-	1r	.	4r	4ryy	.	1r	.	1r	.	1r
.	.	.	.	.	.	.	.	.	16B\Jk	.	.	.	.	.	.	.	.	.	.	.
4r	4r	.	4d 4B/	.	4e 4d/	.	4b 4e/	.	8.e\L	-mi-	.	.	4b/	4e\	.	.	.	.	.	.
.	.	.	.	.	.	.	.	.	16d\Jk	-na	.	.	.	.	.	.	.	.	.	.
4E\	4E\	.	4r	.	4r	.	4r	.	8.c#\L	An-	.	.	4b/	4e\	.	.	.	.	.	.
.	.	.	.	.	.	.	.	.	16B\Jk	.	.	.	.	.	.	.	.	.	.	.
4r	4r	.	4d 4B/	.	4e 4d/	.	4b 4e/	.	8.F#\L	-ge-	.	.	4r	4ryy	.	.	.	.	.	.
.	.	.	.	.	.	.	.	.	16G#\Jk	.	.	.	.	.	.	.	.	.	.	.
!LO:LB:g=original	!	!	!	!	!	!	!	!	!	!	!	!	!	!	!	!	!	!	!	!
=16!|:	=16!|:	=16!|:	=16!|:	=16!|:	=16!|:	=16!|:	=16!|:	=16!|:	=16!|:	=16!|:	=16!|:	=16!|:	=16!|:	=16!|:	=16!|:	=16!|:	=16!|:	=16!|:	=16!|:	=16!|:
!	!	!	!	!	!	!	!LO:TX:a:t=P:problem:od tego miejsca powyżej partii pięciolinia z pomocniczo zapisaną partią Basu	!	!	!	!	!	!	!	!	!	!	!	!	!LO:TX:a:t=P:problem:od tego miejsca powyżej partii pięciolinia z pomocniczo zapisaną partią Basu
4AA/	4AA/	.	4e 4c#\	.	4e 4c#/	.	4a/	.	8B\	-lo-	8r	.	4a/	4c#\	.	4c#/	.	4a\	.	4aa\
.	.	.	.	.	.	.	.	.	8A\	-rum	16A/LL	.	.	.	.	.	.	.	.	.
.	.	.	.	.	.	.	.	.	.	.	16A/JJ	.	.	.	.	.	.	.	.	.
4A\	4A\	.	4e 4c#\	.	4a/	.	4cc# 4e/	.	4r	.	8c#/L	.	4cc#/	4e\	.	4e/	.	4cc#\	.	4ccc#\
.	.	.	.	.	.	.	.	.	.	.	8e/J	.	.	.	.	.	.	.	.	.
!	!	!	!	!	!	!	!	!	!LO:LB:g=original	!	!	!	!	!	!	!	!	!	!	!
!	!	!	!	!	!	!	!	!	!LO:TX:a:t=P:problem:znak repetycji w tym miejscu, zamiast na początku taktu	!	!	!	!	!	!	!	!	!	!	!
4AA/	4AA/	.	4A/	.	4A/	.	4a 4c#/	.	4r	.	4A/	.	4a/	4c#\	.	4c#/	.	4a\	.	4aa\
4r	4r	.	4r	.	4r	.	4r	.	8.G#\	Sal-	4r	.	4r	4ryy	.	4r	.	4r	.	4r
.	.	.	.	.	.	.	.	.	16A\	-ve	.	.	.	.	.	.	.	.	.	.
!	!	!	!	!	!LO:LB:g=original	!	!	!	!	!	!	!	!LO:LB:g=original	!LO:LB:g=original	!	!	!	!	!	!
=17	=17	=17	=17	=17	=17	=17	=17	=17	=17	=17	=17	=17	=17	=17	=17	=17	=17	=17	=17	=17
!	!	!	!	!	!LO:TX:a:t=P:problem:od tego miejsca powyżej partii pięciolinia z pomocniczo zapisaną partią Basu	!	!	!	!	!	!LO:TX:a:t=2.	!	!	!	!	!	!	!	!	!LO:TX:a:t=1
4E\	4E\	.	4r	.	4r	.	4r	.	4B\	sal-	0r	.	4r	4ryy	.	4r	.	4r	.	1r
4r	4r	.	4E/	.	4e 4B/	.	4b 4f#/	.	4E\	-ve	.	.	4b/	4e\	.	4g#/	.	4b\	.	.
4E\	4E\	.	4r	.	4r	.	4r	.	8r	.	.	.	4b/	4e\	.	4e/	.	4e/	.	.
.	.	.	.	.	.	.	.	.	8cn\L	ra-	.	.	.	.	.	.	.	.	.	.
4r	4r	.	4A 4E/	.	4e 4cn/	.	4ccn 4g#\	.	8B\J	.	.	.	4r	4ryy	.	4r	.	4r	.	.
.	.	.	.	.	.	.	.	.	8c\	-dix	.	.	.	.	.	.	.	.	.	.
=18	=18	=18	=18	=18	=18	=18	=18	=18	=18	=18	=18	=18	=18	=18	=18	=18	=18	=18	=18	=18
4EE/	4EE/	.	4r	.	4r	.	4r	.	2c#X\	sal-	.	.	4r	4ryy	.	4r	.	4r	.	(2ccc#\
4E\	4E\	.	2E/	.	(4a#X^\	.	(4cc#X\	.	.	.	.	.	4e/	4e\	.	(4a#X\	.	(4cc#\	.	.
4E\	4E\	.	.	.	4b\)	.	4dd\)	.	8d\	-ve	.	.	4e/	4e\	.	4b\)	.	4dd\)	.	4ddd\)
.	.	.	.	.	.	.	.	.	8r	.	.	.	.	.	.	.	.	.	.	.
4r	4r	.	4E/	.	4e/	.	4e/	.	8B\	sal-	.	.	4r	4ryy	.	4r	.	4r	.	4r
!	!	!	!	!	!	!	!	!	!LO:N:vis=8.	!	!	!	!	!	!	!	!	!	!	!
.	.	.	.	.	.	.	.	.	8B\	-ve	.	.	.	.	.	.	.	.	.	.
!	!	!	!	!	!	!	!	!	!	!	!	!	!	!	!	!	!	!LO:LB:g=original	!	!LO:LB:g=original
=19	=19	=19	=19	=19	=19	=19	=19	=19	=19	=19	=19	=19	=19	=19	=19	=19	=19	=19	=19	=19
!	!	!	!	!	!	!	!	!	!	!	!	!	!	!	!	!	!	!LO:TX:a:t=P:problem:od tego miejsca powyżej partii pięciolinia z pomocniczo zapisaną partią Basu	!	!
!	!	!	!	!	!	!	!	!	!	!	!	!	!LO:TX:a:t=P:problem:od tego miejsca powyżej partii pięciolinia z pomocniczo zapisaną partią Basu	!	!	!	!	!LO:TX:a:t=1.	!	!LO:TX:a:t=1
4E\	4E\	.	4r	.	4r	.	4r	.	8.d\L	ra-	4e/	.	4e/	4e\	.	1r	.	1r	.	1r
.	.	.	.	.	.	.	.	.	16cn\Jk	.	.	.	.	.	.	.	.	.	.	.
4r	4r	.	4A 4E/	.	4a 4e/	.	4ccn 4e/	.	8.B\L	-dix	4r	.	4r	4ryy	.	.	.	.	.	.
.	.	.	.	.	.	.	.	.	16c\Jk	.	.	.	.	.	.	.	.	.	.	.
4E\	4E\	.	4r	.	4r	.	4r	.	8d\L	sal-	4e/	.	4e/	4e\	.	.	.	.	.	.
.	.	.	.	.	.	.	.	.	8c\J	.	.	.	.	.	.	.	.	.	.	.
*	*	*	*	*	*	*	*	*	*Xtuplet	*	*	*	*	*	*	*	*	*	*	*
4r	4r	.	4A 4E/	.	4a 4e/	.	4cc 4e/	.	12c\L	-ve	4r	.	4r	4ryy	.	.	.	.	.	.
.	.	.	.	.	.	.	.	.	12B\	.	.	.	.	.	.	.	.	.	.	.
.	.	.	.	.	.	.	.	.	12A\J	.	.	.	.	.	.	.	.	.	.	.
*	*	*	*	*	*	*	*	*	*	*	*	*	*v	*v	*	*	*	*	*	*
!	!LO:LB:g=original	!	!	!LO:LB:g=original	!	!	!	!LO:LB:g=original	!	!LO:LB:g=original	!	!LO:LB:g=original	!	!	!	!	!	!	!
=20	=20	=20	=20	=20	=20	=20	=20	=20	=20	=20	=20	=20	=20	=20	=20	=20	=20	=20	=20
*	*^	*	*	*	*	*	*	*	*	*	*^	*	*^	*	*^	*	*	*	*
*	*	*cue	*	*	*	*	*	*	*	*	*	*	*cue	*	*	*	*	*	*cue	*	*	*	*
!	!	!	!	!	!	!	!	!	!	!	!	!LO:TX:b:t=1.	!LO:TX:a:i:t=Basſo	!	!	!	!	!	!	!	!	!	!
4E\	4E\	4B/	.	4B 4E/	.	4b 4g#/	.	4b 4g#/	.	4B\	por-	2rg	4ee/	.	4e/	4e\	.	2e/	4ee/	.	2b;\	.	4bb\
!LO:TX:a:t=P:problem:fermata nad ćwierćnutą i pauzami	!	!	!	!	!	!	!	!	!LO:DY:b	!	!	!	!	!	!	!	!	!	!	!	!	!	!
4EE;/	4E\	4e;>/	.	4B 4E;/	.	4e/	.	4ee 4e^\	f	4e;\	.	.	4aa;>/	.	4r;	4ryy	.	.	4aa;>/	.	.	.	4ee\
.	.	.	.	.	.	.	.	.	.	16qqB/LL	.	.	.	.	.	.	.	.	.	.	.	.	.
.	.	.	.	.	.	.	.	.	.	16qqe/	.	.	.	.	.	.	.	.	.	.	.	.	.
.	.	.	.	.	.	.	.	.	.	16qqB/JJ	.	.	.	.	.	.	.	.	.	.	.	.	.
.	.	.	.	.	.	.	.	.	.	16qqG#/LL	.	.	.	.	.	.	.	.	.	.	.	.	.
.	.	.	.	.	.	.	.	.	.	16qqB/	.	.	.	.	.	.	.	.	.	.	.	.	.
.	.	.	.	.	.	.	.	.	.	16qqG#/JJ	.	.	.	.	.	.	.	.	.	.	.	.	.
4r	4rGG	4E;/	.	4r	.	4r;	.	4r;	.	8E\	-ta	4r;yy	8a/	.	2r	2ryy	.	4rd;<	8a/	.	4r;	.	4r;
*	*	*Xcue	*	*	*	*	*	*	*	*	*	*	*	*	*	*	*	*	*Xcue	*	*	*	*
.	.	.	.	.	.	.	.	.	.	8r	.	.	8r	.	.	.	.	.	8ryy	.	.	.	.
4r	4rAA	4ryy	.	4r	.	4r	.	4r	.	8.C#/	ex	4ryy	8.f#/L	.	.	.	.	4r	4ryy	.	4r	.	4r
.	.	.	.	.	.	.	.	.	.	16D/	qua	.	16a/Jk	.	.	.	.	.	.	.	.	.	.
*	*	*	*	*	*	*	*	*	*	*	*	*	*Xcue	*	*	*	*	*	*	*	*	*	*
*	*	*	*	*	*	*	*	*	*	*	*	*v	*v	*	*	*	*	*v	*v	*	*	*	*
*	*v	*v	*	*	*	*	*	*	*	*	*	*	*	*v	*v	*	*	*	*	*	*
!	!	!	!	!	!	!	!	!	!	!	!	!	!LO:LB:g=original	!LO:LB:g=original	!	!LO:LB:g=original	!	!	!
=21	=21	=21	=21	=21	=21	=21	=21	=21	=21	=21	=21	=21	=21	=21	=21	=21	=21	=21	=21
*	*	*	*	*	*	*	*	*	*	*	*	*	*^	*	*	*	*	*	*
!	!LO:TX:a:i:t=pizz.	!	!	!	!	!	!	!	!	!	!LO:TX:a:t=3	!	!	!	!	!LO:TX:a:t=1.	!	!LO:TX:a:t=1.	!	!LO:TX:a:t=1
8AA/	8AA/	.	4r	.	4r	.	4r	.	4E\	mun-	0r	.	4a/	4A\	.	1r	.	1r	.	1r
8r	8r	.	.	.	.	.	.	.	.	.	.	.	.	.	.	.	.	.	.	.
8A\	8A\	.	8.eL 8.c#\	.	8.A/L	.	8.eL 8.c#/	.	8.F#\L	-do	.	.	4r	4ryy	.	.	.	.	.	.
8r	8r	.	.	.	.	.	.	.	.	.	.	.	.	.	.	.	.	.	.	.
.	.	.	16eJk 16c#\	.	16A/Jk	.	16eJk 16c#/	.	16G#\Jk	.	.	.	.	.	.	.	.	.	.	.
8A\	8A\	.	8e 8c#\	.	8A/	.	8e 8c#/	.	4A\	lux	.	.	4a/	4c#\	.	.	.	.	.	.
8r	8r	.	8r	.	8r	.	8r	.	.	.	.	.	.	.	.	.	.	.	.	.
4r	4r	.	8A/	.	8A/	.	8e 8c#/	.	8.B\L	est	.	.	4r	4ryy	.	.	.	.	.	.
.	.	.	8r	.	8r	.	8r	.	.	.	.	.	.	.	.	.	.	.	.	.
.	.	.	.	.	.	.	.	.	16c#\Jk	.	.	.	.	.	.	.	.	.	.	.
*	*	*	*	*	*	*	*	*	*	*	*	*	*v	*v	*	*	*	*	*	*
!LO:LB:g=original	!	!	!	!	!	!	!	!	!	!	!	!	!	!	!	!	!	!	!
=22	=22	=22	=22	=22	=22	=22	=22	=22	=22	=22	=22	=22	=22	=22	=22	=22	=22	=22	=22
!	!	!	!	!	!	!	!	!	!	!	!	!	!LO:TX:a:t=1	!	!	!	!	!	!LO:TX:a:t=2
8D\	8D\	.	4r	.	4r	.	4r	.	2c#\	or-	.	.	1r	.	4r	.	4r	.	0r
8r	8r	.	.	.	.	.	.	.	.	.	.	.	.	.	.	.	.	.	.
!	!	!	!	!	!	!	!LO:N:vis=8	!	!	!	!	!	!	!	!	!	!	!	!
8D\	8D\	.	8.d\L	.	8.f#L 8.d/	.	8.bL 8.d/	.	.	.	.	.	.	.	4d/	.	4f#/	.	.
8r	8r	.	.	.	.	.	.	.	.	.	.	.	.	.	.	.	.	.	.
.	.	.	16d\Jk	.	16f#Jk 16d/	.	16bJk 16d/	.	.	.	.	.	.	.	.	.	.	.	.
8D\	8D\	.	4d\	.	4f# 4d/	.	4b 4d/	.	8F#\	-ta	.	.	.	.	4d/	.	4f#/	.	.
8r	8r	.	.	.	.	.	.	.	8r	.	.	.	.	.	.	.	.	.	.
4r	4r	.	4r	.	4r	.	4r	.	8.d\	ex	.	.	.	.	4r	.	4r	.	.
!	!	!	!	!	!	!	!	!	!LO:N:vis=8	!	!	!	!	!	!	!	!	!	!
.	.	.	.	.	.	.	.	.	16c#\	qua	.	.	.	.	.	.	.	.	.
!	!	!	!	!	!LO:LB:g=original	!	!	!	!LO:LB:g=original	!	!	!	!	!	!	!	!	!	!
=23	=23	=23	=23	=23	=23	=23	=23	=23	=23	=23	=23	=23	=23	=23	=23	=23	=23	=23	=23
*	*	*	*	*	*	*	*	*	*	*	*	*	*^	*	*	*	*	*	*
!	!LO:TX:a:i:t=colar&colon;	!	!	!	!	!	!	!	!	!	!	!	!	!	!	!	!	!	!	!
4E\	4E\	.	4r	.	4r	.	4r	.	8.c#\L	mun-	1r	.	4r	4ryy	.	2r	.	2r	.	.
.	.	.	.	.	.	.	.	.	16B\Jk	.	.	.	.	.	.	.	.	.	.	.
4r	4r	.	4d 4B/	.	4e 4d/	.	4b 4e/	.	8.e\L	-do	.	.	4b/	4e\	.	.	.	.	.	.
.	.	.	.	.	.	.	.	.	16d\Jk	.	.	.	.	.	.	.	.	.	.	.
4E\	4E\	.	4r	.	4r	.	4r	.	8.c#\L	lux	.	.	4b/	4e\	.	4r	.	4r	.	.
.	.	.	.	.	.	.	.	.	16B\Jk	.	.	.	.	.	.	.	.	.	.	.
4r	4r	.	4d 4B/	.	4e 4d/	.	4b 4e/	.	8.F#\L	est	.	.	4r	4ryy	.	8.d/L	.	8.f#/L	.	.
.	.	.	.	.	.	.	.	.	16G#\Jk	.	.	.	.	.	.	16B/Jk	.	16g#/Jk	.	.
!	!	!	!	!	!	!	!LO:SIC:v:custos	!	!	!	!	!	!	!	!	!	!	!	!	!
!	!	!	!	!	!	!	!LO:LB:g=original	!	!	!	!	!	!	!	!	!	!	!LO:LB:g=original	!	!
=24:|!	=24:|!	=24:|!	=24:|!	=24:|!	=24:|!	=24:|!	=24:|!	=24:|!	=24:|!	=24:|!	=24:|!	=24:|!	=24:|!	=24:|!	=24:|!	=24:|!	=24:|!	=24:|!	=24:|!	=24:|!
4AA/	4AA/	.	8r	.	8r	.	8r	.	8B\	or-	8r	.	4a/	4c#\	.	4c#/	.	(8a\L	.	4aa\
*	*	*	*tremolo	*	*	*	*	*	*	*	*	*	*	*	*	*	*	*	*	*
*	*	*	*	*	*tremolo	*	*	*	*	*	*	*	*	*	*	*	*	*	*	*
.	.	.	8e 8c#\L	.	8e 8c#/L	.	8a/L	.	8A\	-ta	16A/LL	.	.	.	.	.	.	8cc#\)	.	.
.	.	.	.	.	.	.	.	.	.	.	16A/JJ	.	.	.	.	.	.	.	.	.
4r	4r	.	8e 8c#\	.	8e 8c#/	.	8a/	.	4r	.	8A/L	.	8a/	8A\	.	8c#/L	.	8a\	.	8aa\L
.	.	.	8e 8c#\J	.	8e 8c#/J	.	8a/J	.	.	.	8A/J	.	8r	8ryy	.	8c#/J	.	8a\J	.	8aa\J
!	!	!	!	!	!	!	!	!	!LO:TX:a:t=P:problem:znak końca repetycji w tym miejscu, zamiast na początku taktu	!	!	!	!	!	!	!	!	!	!	!
4D\	4D\	.	8r	.	8r	.	8r	.	4B\	ex	2r	.	2r	2ryy	.	4d/	.	4b\	.	4bb\
.	.	.	8d\L	.	8f# 8d/L	.	8bL 8d/	.	.	.	.	.	.	.	.	.	.	.	.	.
4r	4r	.	8d\	.	8f# 8d/	.	8b 8d/	.	16B\LL	qua	.	.	.	.	.	4r	.	4r	.	4r
.	.	.	.	.	.	.	.	.	16A\	.	.	.	.	.	.	.	.	.	.	.
.	.	.	8d\J	.	8f# 8d/J	.	8bJ 8d/	.	16G#\	.	.	.	.	.	.	.	.	.	.	.
.	.	.	.	.	.	.	.	.	16F#\JJ	.	.	.	.	.	.	.	.	.	.	.
!	!LO:LB:g=original	!	!	!	!	!	!	!	!	!	!	!	!	!	!	!	!	!	!	!
=25	=25	=25	=25	=25	=25	=25	=25	=25	=25	=25	=25	=25	=25	=25	=25	=25	=25	=25	=25	=25
4E\	4E\	.	8r	.	8r	.	8r	.	8F#\L	mun-	4r	.	2r	2ryy	.	2c#/	.	2e/	.	4r
.	.	.	8A/L	.	8A/L	.	8eL 8c#/	.	8E\J	.	.	.	.	.	.	.	.	.	.	.
!	!	!	!	!	!	!	!	!	!LO:N:vis=4	!	!	!	!	!	!	!	!	!	!	!
4r	4r	.	8A/	.	8A/	.	8e 8c#/	.	8E\	-do	8.e/L	.	.	.	.	.	.	.	.	4.eeT\
.	.	.	8A/J	.	8A/J	.	8eJ 8c#/	.	8r	.	.	.	.	.	.	.	.	.	.	.
.	.	.	.	.	.	.	.	.	.	.	16e/Jk	.	.	.	.	.	.	.	.	.
4E\	4E\	.	8r	.	8r	.	8r	.	8E\L	ex	4e/	.	4e/	4e\	.	2d/	.	2e/	.	.
*	*	*	*	*	*	*	*tremolo	*	*	*	*	*	*	*	*	*	*	*	*	*
.	.	.	8B/L	.	8B/L	.	8e 8d/L	.	8F#\J	.	.	.	.	.	.	.	.	.	.	8ee\L
4r	4r	.	8B/	.	8B/	.	8e 8d/	.	4G#\	qua	4r	.	4e/	4e\	.	.	.	.	.	8ff#\
.	.	.	8B/J	.	8B/J	.	8e 8d/J	.	.	.	.	.	.	.	.	.	.	.	.	8gg#\J
*	*	*	*	*	*Xtremolo	*	*Xtremolo	*	*	*	*	*	*	*	*	*	*	*	*	*
!	!	!	!	!	!	!	!	!	!LO:LB:g=original	!	!	!	!	!	!	!	!	!	!	!LO:LB:g=original
=26	=26	=26	=26	=26	=26	=26	=26	=26	=26	=26	=26	=26	=26	=26	=26	=26	=26	=26	=26	=26
!	!	!	!	!	!	!LO:DY:b	!	!	!	!	!	!	!	!	!	!	!	!	!	!
4AA/	4AA/	.	8A/L	.	8c#/L	f	8aL 8A/	.	2A\	mun-	8a\L	.	1a	1A	.	2c#/	.	2a\	.	4aa\
.	.	.	16A/L	.	16A/L	.	16a/L	.	.	.	16a\L	.	.	.	.	.	.	.	.	.
.	.	.	16A/JJ	.	16A/JJ	.	16a/JJ	.	.	.	16a\JJ	.	.	.	.	.	.	.	.	.
4r	4r	.	8A/L	.	8A/L	.	8a/L	.	.	.	8a\L	.	.	.	.	.	.	.	.	4r
.	.	.	8A/J	.	8A/J	.	8a/J	.	.	.	8a\J	.	.	.	.	.	.	.	.	.
*	*	*	*	*	*tremolo	*	*tremolo	*	*	*	*	*	*	*	*	*	*	*	*	*
4C#/	4C#/	.	8A/L	.	8A/L	.	8a/L	.	2C#/	-do	4a\	.	.	.	.	2r	.	2r	.	[2aa\
.	.	.	8A/	.	8A/	.	8a/	.	.	.	.	.	.	.	.	.	.	.	.	.
4r	4r	.	8A/	.	8A/	.	8a/	.	.	.	4r	.	.	.	.	.	.	.	.	.
.	.	.	8A/J	.	8A/J	.	8a/J	.	.	.	.	.	.	.	.	.	.	.	.	.
*	*	*	*Xtremolo	*	*Xtremolo	*	*Xtremolo	*	*	*	*	*	*	*	*	*	*	*	*	*
!	!	!	!LO:LB:g=original	!	!	!	!	!	!	!	!	!	!LO:LB:g=original	!LO:LB:g=original	!	!	!	!	!	!
=27	=27	=27	=27	=27	=27	=27	=27	=27	=27	=27	=27	=27	=27	=27	=27	=27	=27	=27	=27	=27
!	!	!	!LO:TX:a:t=P:problem:od tego miejsca znów powyżej partii pięciolinia z pomocniczo zapisaną partią Basu	!	!	!	!	!	!	!	!LO:TX:a:t=2	!	!	!	!	!LO:TX:a:t=2.	!	!LO:TX:a:t=1.	!	!
4D\	4D\	.	8D/L	.	8d/L	.	8d/L	.	4D\	lux	0r	.	[1a	1A	.	0r	.	1r	.	2aa\]
.	.	.	8A/	.	8A/	.	8a/	.	.	.	.	.	.	.	.	.	.	.	.	.
4r	4r	.	8A/	.	8A/	.	8a/	.	4D\	est	.	.	.	.	.	.	.	.	.	.
.	.	.	8A/J	.	8A/J	.	8a/J	.	.	.	.	.	.	.	.	.	.	.	.	.
4D#X\	4D#X\	.	8D#X/L	.	8d#X/L	.	8d#X/L	.	4D#X\	or-	.	.	.	.	.	.	.	.	.	2r
.	.	.	8A/	.	8A/	.	8a/	.	.	.	.	.	.	.	.	.	.	.	.	.
4r	4r	.	8A/	.	8A/	.	8a/	.	4D#\	-ta	.	.	.	.	.	.	.	.	.	.
.	.	.	8A/J	.	8A/J	.	8a/J	.	.	.	.	.	.	.	.	.	.	.	.	.
!	!	!	!	!	!	!	!LO:SIC:v:custos	!	!	!	!	!	!	!	!	!	!	!	!	!
!	!	!	!	!	!	!	!LO:LB:g=original	!	!	!	!	!	!	!	!	!	!	!	!	!
=28	=28	=28	=28	=28	=28	=28	=28	=28	=28	=28	=28	=28	=28	=28	=28	=28	=28	=28	=28	=28
!	!	!	!	!	!	!	!	!	!	!	!	!	!	!	!	!	!	!LO:TX:a:t=1.	!	!
4E\	4E\	.	8E/L	.	8e/L	.	8e/L	.	2E\	lux	.	.	1a_	1A	.	.	.	1r	.	2aa\
.	.	.	8A/	.	8A/	.	8a/	.	.	.	.	.	.	.	.	.	.	.	.	.
4r	4r	.	8A/	.	8A/	.	8a/	.	.	.	.	.	.	.	.	.	.	.	.	.
.	.	.	8A/J	.	8A/J	.	8a/J	.	.	.	.	.	.	.	.	.	.	.	.	.
4F#\	4F#\	.	8F#/L	.	8f#/L	.	8f#/L	.	4F#\	.	.	.	.	.	.	.	.	.	.	4ff#\
.	.	.	8A/	.	8A/	.	8a/	.	.	.	.	.	.	.	.	.	.	.	.	.
4D#X\	4D#X\	.	8D#X/	.	8c#X/	.	8d#X/	.	4D#X\	est	.	.	.	.	.	.	.	.	.	4dd#X\
.	.	.	8A/J	.	8A/J	.	8a/J	.	.	.	.	.	.	.	.	.	.	.	.	.
*	*	*	*	*	*	*	*	*	*	*	*	*	*v	*v	*	*	*	*	*	*
!LO:LB:g=original	!	!	!	!	!	!LO:LB:g=original	!	!	!	!	!LO:LB:g=original	!	!	!	!	!	!	!LO:LB:g=original	!
=29	=29	=29	=29	=29	=29	=29	=29	=29	=29	=29	=29	=29	=29	=29	=29	=29	=29	=29	=29
*	*^	*	*	*	*	*	*	*	*^	*	*^	*	*	*	*	*	*	*	*^
*	*cue	*	*	*	*	*	*	*	*	*	*	*	*	*	*	*	*	*	*	*	*	*	*
4E\	4e	4E	.	4E/	.	4A/	.	4e/ 4c#	.	4ryy	4E;>\	or-	4rd	4a;>/	.	4a/ 4A	.	4e/	.	4cc#\	.	4ryy	4ee\
*	*Xtuplet	*	*	*	*	*	*	*	*	*Xtuplet	*	*	*Xtuplet	*	*	*	*	*	*	*	*	*	*
*	*	*	*	*	*	*	*	*	*	*cue	*	*	*cue	*	*	*	*	*	*	*	*	*	*
!	!LO:N:vis=10	!	!	!	!	!	!	!	!	!LO:N:vis=5	!	!	!LO:N:vis=5	!	!	!	!	!	!	!	!	!	!
4r;	40d#XLLL	4r	.	4r;	.	4r;	.	4r;	.	40e/	4ryy	.	40aa/	4rd;>	.	4r;	.	4r;	.	4r;	.	4ryy	4r;>
!	!LO:N:vis=10	!	!	!	!	!	!	!	!	!LO:N:vis=20	!	!	!LO:N:vis=10	!	!	!	!	!	!	!	!	!	!
.	40f#	.	.	.	.	.	.	.	.	40d#X/LLL	.	.	40gg##X/LLL	.	.	.	.	.	.	.	.	.	.
!	!LO:N:vis=10	!	!	!	!	!	!	!	!	!LO:N:vis=20	!	!	!LO:N:vis=10	!	!	!	!	!	!	!	!	!	!
.	40e	.	.	.	.	.	.	.	.	40e/	.	.	40bb/	.	.	.	.	.	.	.	.	.	.
!	!LO:N:vis=10	!	!	!	!	!	!	!	!	!LO:N:vis=20	!	!	!LO:N:vis=10	!	!	!	!	!	!	!	!	!	!
.	40d#	.	.	.	.	.	.	.	.	40dn/	.	.	40aa/	.	.	.	.	.	.	.	.	.	.
!	!LO:N:vis=10	!	!	!	!	!	!	!	!	!LO:N:vis=20	!	!	!LO:N:vis=10	!	!	!	!	!	!	!	!	!	!
.	40c#	.	.	.	.	.	.	.	.	40c#/JJJ	.	.	40gg##/	.	.	.	.	.	.	.	.	.	.
!	!	!	!	!	!	!	!	!	!	!LO:TX:a:t=P:problem:belka powinna być połaczona, ale wtedy źle się wyświetla	!	!	!	!	!	!	!	!	!	!	!	!	!
!	!LO:N:vis=8	!	!	!	!	!	!	!	!	!LO:N:vis=16	!	!	!LO:N:vis=10	!	!	!	!	!	!	!	!	!	!
.	32B	.	.	.	.	.	.	.	.	32B/LLL	.	.	40ff#/	.	.	.	.	.	.	.	.	.	.
!	!	!	!	!	!	!	!	!	!	!	!	!	!LO:N:vis=10	!	!	!	!	!	!	!	!	!	!
.	.	.	.	.	.	.	.	.	.	.	.	.	40ee/	.	.	.	.	.	.	.	.	.	.
!	!LO:N:vis=8	!	!	!	!	!	!	!	!	!LO:N:vis=16	!	!	!	!	!	!	!	!	!	!	!	!	!
.	32A	.	.	.	.	.	.	.	.	32A/	.	.	.	.	.	.	.	.	.	.	.	.	.
!	!	!	!	!	!	!	!	!	!	!	!	!	!LO:N:vis=10	!	!	!	!	!	!	!	!	!	!
.	.	.	.	.	.	.	.	.	.	.	.	.	40dd/	.	.	.	.	.	.	.	.	.	.
!	!LO:N:vis=8	!	!	!	!	!	!	!	!	!LO:N:vis=16	!	!	!	!	!	!	!	!	!	!	!	!	!
.	32G#	.	.	.	.	.	.	.	.	32G#/	.	.	.	.	.	.	.	.	.	.	.	.	.
!	!	!	!	!	!	!	!	!	!	!	!	!	!LO:N:vis=10	!	!	!	!	!	!	!	!	!	!
.	.	.	.	.	.	.	.	.	.	.	.	.	40cc#/	.	.	.	.	.	.	.	.	.	.
!	!LO:N:vis=8	!	!	!	!	!	!	!	!	!LO:N:vis=16	!	!	!	!	!	!	!	!	!	!	!	!	!
.	32F#JJJ	.	.	.	.	.	.	.	.	32F#/JJJ	.	.	.	.	.	.	.	.	.	.	.	.	.
!	!	!	!	!	!	!	!	!	!	!	!	!	!LO:N:vis=10	!	!	!	!	!	!	!	!	!	!
.	.	.	.	.	.	.	.	.	.	.	.	.	40b/JJJ	.	.	.	.	.	.	.	.	.	.
*	*	*	*	*	*	*	*	*	*	*	*	*	*Xcue	*	*	*	*	*	*	*	*	*	*
4E;\	4ryy	4E;>	.	4B/ 4E	.	4d/ 4B	.	4e/ 4d	.	4ryy	4E;>\	.	4a;/	4rd;	.	4r;	.	4e/	.	4b;\	.	4ryy	4ee\
*	*	*	*	*	*	*	*	*	*	*	*	*	*cue	*	*	*	*	*	*	*	*	*cue	*
!	!	!	!	!	!	!	!	!	!	!	!	!	!	!	!	!	!	!	!	!	!	!LO:TX:a:t=Basso	!
!	!LO:N:vis=8	!	!	!	!	!	!	!	!	!LO:N:vis=20	!	!	!LO:N:vis=8	!	!	!	!	!	!	!	!	!LO:N:vis=8	!LO:N:vis=4
4r	32G#LLL	4r;	.	4r;	.	4r;	.	4r;	.	40G#/LLL	4ryy	.	32dd/LLL	4rd	.	4r	.	4r;	.	4r;	.	32ee/LLL	4r;>
!	!	!	!	!	!	!	!	!	!	!LO:N:vis=20	!	!	!	!	!	!	!	!	!	!	!	!	!
.	.	.	.	.	.	.	.	.	.	40F#/	.	.	.	.	.	.	.	.	.	.	.	.	.
!	!LO:N:vis=8	!	!	!	!	!	!	!	!	!	!	!	!LO:N:vis=8	!	!	!	!	!	!	!	!	!LO:N:vis=8	!
.	32F#	.	.	.	.	.	.	.	.	.	.	.	32b/	.	.	.	.	.	.	.	.	32dd/	.
!	!	!	!	!	!	!	!	!	!	!LO:N:vis=20	!	!	!	!	!	!	!	!	!	!	!	!	!
.	.	.	.	.	.	.	.	.	.	40E/	.	.	.	.	.	.	.	.	.	.	.	.	.
!	!LO:N:vis=8	!	!	!	!	!	!	!	!	!	!	!	!LO:N:vis=8	!	!	!	!	!	!	!	!	!LO:N:vis=8	!
.	32E	.	.	.	.	.	.	.	.	.	.	.	32a/	.	.	.	.	.	.	.	.	32cc#/	.
!	!	!	!	!	!	!	!	!	!	!LO:N:vis=20	!	!	!	!	!	!	!	!	!	!	!	!	!
.	.	.	.	.	.	.	.	.	.	40D/	.	.	.	.	.	.	.	.	.	.	.	.	.
!	!LO:N:vis=8	!	!	!	!	!	!	!	!	!	!	!	!LO:N:vis=8	!	!	!	!	!	!	!	!	!LO:N:vis=8	!
.	32D	.	.	.	.	.	.	.	.	.	.	.	32g#/	.	.	.	.	.	.	.	.	32b/	.
!	!	!	!	!	!	!	!	!	!	!LO:N:vis=20	!	!	!	!	!	!	!	!	!	!	!	!	!
.	.	.	.	.	.	.	.	.	.	40C#/JJJ	.	.	.	.	.	.	.	.	.	.	.	.	.
!	!LO:N:vis=8	!	!	!	!	!	!	!	!	!LO:N:vis=8	!	!	!LO:N:vis=8	!	!	!	!	!	!	!	!	!LO:N:vis=8	!
.	32C#	.	.	.	.	.	.	.	.	32D/LLL	.	.	32f#/	.	.	.	.	.	.	.	.	32a/	.
!	!LO:N:vis=8	!	!	!	!	!	!	!	!	!LO:N:vis=8	!	!	!LO:N:vis=8	!	!	!	!	!	!	!	!	!LO:N:vis=8	!
.	32E	.	.	.	.	.	.	.	.	32C#/JJJ	.	.	32a/	.	.	.	.	.	.	.	.	32cc#/	.
!	!LO:N:vis=8	!	!	!	!	!	!	!	!	!LO:N:vis=4.	!	!	!LO:N:vis=8	!	!	!	!	!	!	!	!	!LO:N:vis=8	!
.	32D	.	.	.	.	.	.	.	.	32D/	.	.	32g#/	.	.	.	.	.	.	.	.	32b/	.
!	!LO:N:vis=8	!	!	!	!	!	!	!	!	!LO:N:vis=8	!	!	!LO:N:vis=8	!	!	!	!	!	!	!	!	!LO:N:vis=8	!
.	32BBJJJ	.	.	.	.	.	.	.	.	32BB	.	.	32e/JJJ	.	.	.	.	.	.	.	.	32g#/JJJ	.
*	*Xcue	*	*	*	*	*	*	*	*	*Xcue	*	*	*	*	*	*	*	*	*	*	*	*	*
*	*v	*v	*	*	*	*	*	*	*	*v	*v	*	*	*	*	*	*	*	*	*	*	*	*
=30	=30	=30	=30	=30	=30	=30	=30	=30	=30	=30	=30	=30	=30	=30	=30	=30	=30	=30	=30	=30	=30
!	!	!	!	!	!	!	!	!	!	!	!LO:TX:a:t=1.	!	!	!	!	!	!	!	!	!	!LO:TX:a:t=1
4AA/	4AA	.	8A/	.	8a/ 8A	.	8a/	.	1AA	-ta	1d	1rdd	.	1ryy	.	4A/	.	4a/	.	1f#	1rb
.	.	.	8r	.	8r	.	8r	.	.	.	.	.	.	.	.	.	.	.	.	.	.
*	*	*	*	*	*	*	*	*	*	*	*	*	*	*	*	*tremolo	*	*tremolo	*	*	*
4r	4r	.	8dL\	.	8dL/	.	8f#L/	.	.	.	.	.	.	.	.	8dL/	p	8f#L/	.	.	.
.	.	.	8dJ\	.	8dJ/	.	8f#J/	.	.	.	.	.	.	.	.	8dJ/	.	8f#J/	.	.	.
2r	2r	.	8c#L\	.	8c#L/	.	8eL/	.	.	.	.	.	.	.	.	8c#L/	.	8eL/	.	.	.
.	.	.	8c#J\	.	8c#J/	.	8e/	.	.	.	.	.	.	.	.	8c#J/	.	8eJ/	.	.	.
.	.	.	8BL\	.	8BL/	.	8d/	.	.	.	.	.	.	.	.	8BL/	.	8dL/	.	.	.
.	.	.	8BJ\	.	8BJ/	.	8dJ/	.	.	.	.	.	.	.	.	8BJ/	.	8dJ/	.	.	.
*	*	*	*	*	*	*	*	*	*	*	*	*	*	*	*	*Xtremolo	*	*Xtremolo	*	*	*
!	!LO:LB:g=original	!	!	!	!	!	!LO:LB:g=original	!	!LO:LB:g=original	!	!	!	!	!	!	!	!	!	!	!	!
=31	=31	=31	=31	=31	=31	=31	=31	=31	=31	=31	=31	=31	=31	=31	=31	=31	=31	=31	=31	=31	=31
!	!	!LO:DY:b	!	!	!	!	!	!	!	!	!LO:TX:a:t=1.	!	!	!	!	!	!	!	!	!	!
4AA/	1AA	pp	1A	.	1A	.	1c#	.	1AA	.	1d	1rdd	.	1ryy	.	2A/	.	2c#/	.	1f#	1aa
4r	.	.	.	.	.	.	.	.	.	.	.	.	.	.	.	.	.	.	.	.	.
2r	.	.	.	.	.	.	.	.	.	.	.	.	.	.	.	2r	.	2r	.	.	.
*	*	*	*	*	*	*	*	*	*	*	*v	*v	*	*	*	*	*	*	*	*v	*v
==	==	==	==	==	==	==	==	==	==	==	==	==	==	==	==	==	==	==	==
*-	*-	*-	*-	*-	*-	*-	*-	*-	*-	*-	*-	*-	*-	*-	*-	*-	*-	*-	*-
!!!system-decoration: [g1][g2]s6[g3]s11
!!!RDF**kern: > = above
!!!RDF**kern: < = below
!!!ENC: Marta Lawrence
!!!END: 2020-12-31
!!!ENC: Berenika Jozajtis
!!!END: 2020-07-18
